X: 10
T: Missa Ecce ancilla domini / Agnus Dei
N: Derived from Duf1003e-Missa_Ecce_ancilla_domini-Agnus.krn
C: Guillaume Du Fay
%%abc-version 2.0
%%abcx-abcm2ps-target-version 5.9.1 (29 Sep 2008)
%%abc-creator hum2abc beta
%%abcx-conversion-date 2019/02/16 20:31:46
%%abc-edited-by Alejadro Planchart, Jesse Rodin
%%abc-edited-by Alejandro Planchart
%%abcx-initial-encoding-date 2014/07/25/
%%humdrum-veritas 821237085
%%humdrum-veritas-data 401623102
%%linebreak <none>
%%barnumbers 0
L: 1/4
M: 3/1
Q: 1/2=120
%%staves [1 2 3 4]
V: 1 clef=treble
V: 2 clef=treble-8
V: 3 clef=treble-8
V: 4 clef=bass
K: F
[V:1] G12 | 
[V:2] G6A2=B4 | 
[V:3] z12 | 
[V:4] z12 | 
[V:1] E4F6E2 | 
[V:2] c4d6c2 | 
[V:3] z12 | 
[V:4] z12 | 
[V:1] E4A6G2 | 
[V:2] c8c4 | 
[V:3] z12 | 
[V:4] z12 | 
[V:1] G6^F2F2E2 | 
[V:2] =B4A8 | 
[V:3] z12 | 
[V:4] z12 | 
[V:1] G4E4F4 | 
[V:2] G8A4 | 
[V:3] z12 | 
[V:4] z12 | 
[V:1] E2D3CC4=B,2 | 
[V:2] G2F2G2E2D4 | 
[V:3] z12 | 
[V:4] z12 | 
[V:1] C8z4 | 
[V:2] C12 | 
[V:3] G12 | 
[V:4] z12 | 
[V:1] E6F2G4 | 
[V:2] z4G4E4 | 
[V:3] c12 | 
[V:4] C,12- | 
[V:1] A2G4F2E4 | 
[V:2] F2G4A2E2F2 | 
[V:3] c12 | 
[V:4] C,12 | 
[V:1] D12 | 
[V:2] G6F2D4 | 
[V:3] =B12 | 
[V:4] G,,8G,,4 | 
[V:1] E12 | 
[V:2] C12 | 
[V:3] z12 | 
[V:4] G,4E,2F,2G,4 | 
[V:1] F8F4 | 
[V:2] z12 | 
[V:3] A12 | 
[V:4] D,8D,4 | 
[V:1] G3FE2C2D4 | 
[V:2] D4E4D4 | 
[V:3] G12 | 
[V:4] G,,4C,4B,,4 | 
[V:1] E4F2E2C4 | 
[V:2] C2E2D2E2^F3E | 
[V:3] A12 | 
[V:4] A,,4D,2C,2A,,4 | 
[V:1] D4z4D2E2 | 
[V:2] G12 | 
[V:3] =B12 | 
[V:4] G,,12 | 
[V:1] F6G2A4 | 
[V:2] D12 | 
[V:3] A12 | 
[V:4] z12 | 
[V:1] =B4c2A2B4 | 
[V:2] D4C4D4 | 
[V:3] G4E2F2G4 | 
[V:4] G,,4A,,4G,,4 | 
[V:1] A4G2G4^F2 | 
[V:2] z2A2=B2c2d4 | 
[V:3] A2c2=B2G2A4 | 
[V:4] D,2E,F,G,2E,2D,4 | 
[V:1] G4z2E4C2 | 
[V:2] =B4c8 | 
[V:3] G12 | 
[V:4] E,4C,8 | 
[V:1] E3FD4E2C2- | 
[V:2] z4z4G4 | 
[V:3] G12 | 
[V:4] C,4B,,4C,3D, | 
[V:1] C=B,C2D2B,2C4 | 
[V:2] C2E2D4C4- | 
[V:3] z12 | 
[V:4] E,2G,2F,4G,4 | 
[V:1] G3FG2A2F4 | 
[V:2] C2c4A2=B3A | 
[V:3] z12 | 
[V:4] E,2C,2E,2F,2D,4 | 
[V:1] E4z4z4 | 
[V:2] c4=B2d2c2e2- | 
[V:3] G12 | 
[V:4] C,4G,,4C,4- | 
[V:1] z12 | 
[V:2] e2c2d2c2=B=B2A | 
[V:3] E4D2G4F2 | 
[V:4] C,2A,,2B,,2C,2D,4 | 
[V:1] E8F2D2 | 
[V:2] c4z4A4 | 
[V:3] G8F4 | 
[V:4] C,8z4 | 
[V:1] E4F2D4^C2 | 
[V:2] =B2c2d2A4G2 | 
[V:3] G2A2D2F2E4 | 
[V:4] z12 | 
[V:1] D6E2F2G2 | 
[V:2] A8d4 | 
[V:3] D8D4 | 
[V:4] z4z4B,,4 | 
[V:1] E4D4A4 | 
[V:2] c2=B2A4d4 | 
[V:3] E4F8 | 
[V:4] C,4D,8 | 
[V:1] G3FD4C2D2 | 
[V:2] z2D6E2F2 | 
[V:3] G4F2G2A4 | 
[V:4] G,,4B,,4A,,2D,2- | 
[V:1] F2E2C2D2C2A,2 | 
[V:2] D2E4D2E2C2 | 
[V:3] A4G2G4^F2 | 
[V:4] D,2C,4B,,2A,,4 | 
[V:1] =B,4[G,4D4]z2G2- | 
[V:2] D8E4 | 
[V:3] G12- | 
[V:4] G,,8C,3D, | 
[V:1] GFG2E2C2D4 | 
[V:2] C4E4D4 | 
[V:3] G12 | 
[V:4] E,4C,4[G,,4=B,,4] | 
[V:1] E6C2C4 ||  
[V:2] C12 ||  
[V:3] G12 ||  
[V:4] C,12 ||  
[V:1]  [K:F] [K:clef=treble][M:2/1]C6D2 | 
[V:2]  [K:F] [K:clef=treble-8][M:2/1]z8 | 
[V:3]  [K:F] [K:clef=treble-8][M:2/1]z8 | 
[V:4]  [K:F] [K:clef=bass][M:2/1]z8 | 
[V:1] E4F4 | 
[V:2] z8 | 
[V:3] z8 | 
[V:4] z8 | 
[V:1] G8- | 
[V:2] C6D2 | 
[V:3] z8 | 
[V:4] z8 | 
[V:1] G4A4 | 
[V:2] E4F4 | 
[V:3] z8 | 
[V:4] z8 | 
[V:1] G4E4- | 
[V:2] G8- | 
[V:3] z8 | 
[V:4] z8 | 
[V:1] E4F4 | 
[V:2] G4A4 | 
[V:3] z8 | 
[V:4] z8 | 
[V:1] G8 | 
[V:2] G4E4- | 
[V:3] z8 | 
[V:4] z8 | 
[V:1] C8 | 
[V:2] E4F4 | 
[V:3] z8 | 
[V:4] z8 | 
[V:1] z4=B,4 | 
[V:2] G8 | 
[V:3] z8 | 
[V:4] z8 | 
[V:1] C4E4 | 
[V:2] C8 | 
[V:3] z8 | 
[V:4] z8 | 
[V:1] D8 | 
[V:2] z4=B,4 | 
[V:3] z8 | 
[V:4] z8 | 
[V:1] C8 | 
[V:2] C4E4 | 
[V:3] z8 | 
[V:4] z8 | 
[V:1] z4F4 | 
[V:2] D8 | 
[V:3] z8 | 
[V:4] z8 | 
[V:1] E4C4 | 
[V:2] C8 | 
[V:3] z8 | 
[V:4] z8 | 
[V:1] D8 | 
[V:2] z4F4 | 
[V:3] z8 | 
[V:4] z8 | 
[V:1] E8 | 
[V:2] E4C4 | 
[V:3] z8 | 
[V:4] z8 | 
[V:1] z4A4 | 
[V:2] D8 | 
[V:3] z8 | 
[V:4] z8 | 
[V:1] G4E4 | 
[V:2] E8 | 
[V:3] z8 | 
[V:4] z8 | 
[V:1] F8 | 
[V:2] z4A4 | 
[V:3] z8 | 
[V:4] z8 | 
[V:1] G8 | 
[V:2] G4E4 | 
[V:3] z8 | 
[V:4] z8 | 
[V:1] z4c4 | 
[V:2] F8 | 
[V:3] z8 | 
[V:4] z8 | 
[V:1] =B4G4 | 
[V:2] G8 | 
[V:3] z8 | 
[V:4] z8 | 
[V:1] A8 | 
[V:2] z4c4 | 
[V:3] z8 | 
[V:4] z8 | 
[V:1] G4E4- | 
[V:2] =B4G4 | 
[V:3] z8 | 
[V:4] z8 | 
[V:1] E2D2C4 | 
[V:2] A8 | 
[V:3] z8 | 
[V:4] z8 | 
[V:1] =B,4C4 | 
[V:2] G4E4 | 
[V:3] z8 | 
[V:4] z8 | 
[V:1] D2C3=B,A,2 | 
[V:2] F2E3DC2 | 
[V:3] z8 | 
[V:4] z8 | 
[V:1] G,4A,4 | 
[V:2] =B,4C4 | 
[V:3] z8 | 
[V:4] z8 | 
[V:1] =B,6A,2 | 
[V:2] D8 | 
[V:3] z8 | 
[V:4] z8 | 
[V:1] C8- | 
[V:2] C8- | 
[V:3] z8 | 
[V:4] z8 | 
[V:1] C8- | 
[V:2] C8 | 
[V:3] z8 | 
[V:4] z8 | 
[V:1] C8 | 
[V:2] z8 | 
[V:3] z8 | 
[V:4] z8 | 
[V:1] z12 | 
[V:2] [M:3/1]C8C4- | 
[V:3] z12 | 
[V:4] z12 | 
[V:1] z12 | 
[V:2] C4=B,8 | 
[V:3] z12 | 
[V:4] z12 | 
[V:1] [M:3/1]C8C4- | 
[V:2] C6D2E4 | 
[V:3] z12 | 
[V:4] z12 | 
[V:1] C4=B,8 | 
[V:2] F4D8 | 
[V:3] z12 | 
[V:4] z12 | 
[V:1] C12- | 
[V:2] C12 | 
[V:3] z12 | 
[V:4] z12 | 
[V:1] C4F4E4 | 
[V:2] F8G4 | 
[V:3] z12 | 
[V:4] z12 | 
[V:1] C4D8 | 
[V:2] A8=B4 | 
[V:3] z12 | 
[V:4] z12 | 
[V:1] E4C8 | 
[V:2] c8F4- | 
[V:3] z12 | 
[V:4] z12 | 
[V:1] F4E4F4 | 
[V:2] F4C4D4 | 
[V:3] z12 | 
[V:4] z12 | 
[V:1] G4A6F2 | 
[V:2] C4F8 | 
[V:3] z12 | 
[V:4] z12 | 
[V:1] F8E4 | 
[V:2] A4G8 | 
[V:3] z12 | 
[V:4] z12 | 
[V:1] F12 | 
[V:2] F12- | 
[V:3] z12 | 
[V:4] z12 | 
[V:1] z4z4F4 | 
[V:2] F12 | 
[V:3] z12 | 
[V:4] z12 | 
[V:1] E4D8 | 
[V:2] z4z4F4 | 
[V:3] z12 | 
[V:4] z12 | 
[V:1] C4D4F4 | 
[V:2] E4D8 | 
[V:3] z12 | 
[V:4] z12 | 
[V:1] E4A8 | 
[V:2] C4D4F4 | 
[V:3] z12 | 
[V:4] z12 | 
[V:1] G4E4F4 | 
[V:2] E4A8 | 
[V:3] z12 | 
[V:4] z12 | 
[V:1] G8C4 | 
[V:2] G4E4F4 | 
[V:3] z12 | 
[V:4] z12 | 
[V:1] E4D6C2 | 
[V:2] G8C4 | 
[V:3] z12 | 
[V:4] z12 | 
[V:1] C8=B,4 | 
[V:2] E4D8 | 
[V:3] z12 | 
[V:4] z12 | 
[V:1] C4D2C2=B,2A,2 | 
[V:2] C4F4D4 | 
[V:3] z12 | 
[V:4] z12 | 
[V:1] G,4A,4=B,4 | 
[V:2] E4F4G4 | 
[V:3] z12 | 
[V:4] z12 | 
[V:1] G,4z4C4- | 
[V:2] z4C8 | 
[V:3] z12 | 
[V:4] z12 | 
[V:1] C2=B,2C4D4 | 
[V:2] E8F4 | 
[V:3] z12 | 
[V:4] z12 | 
[V:1] E8F4 | 
[V:2] G4A8 | 
[V:3] z12 | 
[V:4] z12 | 
[V:1] G6F2E4 | 
[V:2] G4c8 | 
[V:3] z12 | 
[V:4] z12 | 
[V:1] D4C4E4 | 
[V:2] =B4A2c4=B2 | 
[V:3] z12 | 
[V:4] z12 | 
[V:1] z4A4G4 | 
[V:2] G4F4G4- | 
[V:3] z12 | 
[V:4] z12 | 
[V:1] E4F2E2D2C2 | 
[V:2] G4A2G2F2E2 | 
[V:3] z12 | 
[V:4] z12 | 
[V:1] D6A,2=B,4 | 
[V:2] F4D8 | 
[V:3] z12 | 
[V:4] z12 | 
[V:1] C12 ||  
[V:2] C12 ||  
[V:3] z12 ||  
[V:4] z12 ||  
[V:1]  [K:F] [K:clef=treble][M:2/1]E8- | 
[V:2]  [K:F] [K:clef=treble-8][M:2/1]c8 | 
[V:3]  [K:F] [K:clef=treble-8][M:2/1]G8 | 
[V:4]  [K:F] [K:clef=bass][M:2/1]C,8- | 
[V:1] E8 | 
[V:2] c6=B2 | 
[V:3] G8 | 
[V:4] C,8 | 
[V:1] E8 | 
[V:2] A2G2G4 | 
[V:3] (3:2:2c8=B4 | 
[V:4] C,8 | 
[V:1] D4C4 | 
[V:2] F4E4 | 
[V:3] A4G4 | 
[V:4] D,4E,4 | 
[V:1] D4F4 | 
[V:2] D8 | 
[V:3] A8 | 
[V:4] F,6E,2 | 
[V:1] E4D3C | 
[V:2] E4F4 | 
[V:3] G4F4 | 
[V:4] C,4D,4 | 
[V:1] E8 | 
[V:2] E4C4 | 
[V:3] G4A4- | 
[V:4] C,4A,,4 | 
[V:1] D8 | 
[V:2] D8 | 
[V:3] A2G2G2F2 | 
[V:4] B,,8 | 
[V:1] C8 | 
[V:2] E8 | 
[V:3] A8 | 
[V:4] A,,8 | 
[V:1] D4E4 | 
[V:2] F4E4- | 
[V:3] z8 | 
[V:4] D,4C,4- | 
[V:1] C4D4 | 
[V:2] E2D2D4- | 
[V:3] G8 | 
[V:4] C,4B,,4 | 
[V:1] z4A,4 | 
[V:2] D4C4 | 
[V:3] F8 | 
[V:4] A,,8 | 
[V:1] =B,6C2 | 
[V:2] D4E4 | 
[V:3] G8 | 
[V:4] G,,8 | 
[V:1] A,8 | 
[V:2] F8 | 
[V:3] A8 | 
[V:4] D,6E,2 | 
[V:1] A8 | 
[V:2] D4F4 | 
[V:3] A6=B2 | 
[V:4] F,4D,4 | 
[V:1] G4F4 | 
[V:2] G4A4 | 
[V:3] c4d4- | 
[V:4] E,4F,4 | 
[V:1] D4E4 | 
[V:2] =B4G4 | 
[V:3] d2c2c4- | 
[V:4] G,4E,4 | 
[V:1] F6G2 | 
[V:2] A2F4E2 | 
[V:3] c4=B4 | 
[V:4] D,8 | 
[V:1] E8 | 
[V:2] G4z4 | 
[V:3] c8- | 
[V:4] C,8- | 
[V:1] z4C4 | 
[V:2] E2F2G4- | 
[V:3] c8 | 
[V:4] C,8 | 
[V:1] D4E2G2- | 
[V:2] G2F2E4 | 
[V:3] z8 | 
[V:4] G,,4C,4 | 
[V:1] G2F2E4 | 
[V:2] D4E4 | 
[V:3] z8 | 
[V:4] B,,4C,4 | 
[V:1] D8 | 
[V:2] F8 | 
[V:3] A4=B4 | 
[V:4] D,8 | 
[V:1] E6F2 | 
[V:2] G4E4 | 
[V:3] c4A4 | 
[V:4] C,8 | 
[V:1] D8 | 
[V:2] F4D4- | 
[V:3] A4G4 | 
[V:4] D,4B,,4 | 
[V:1] z4A,4 | 
[V:2] D4C4 | 
[V:3] F8 | 
[V:4] A,,8 | 
[V:1] =B,4C2D2- | 
[V:2] D8 | 
[V:3] G4G4- | 
[V:4] G,,8 | 
[V:1] D2C2A,4 | 
[V:2] z8 | 
[V:3] G4^F4 | 
[V:4] D,8 | 
[V:1] =B,4G,4 | 
[V:2] d8- | 
[V:3] G8- | 
[V:4] G,,8- | 
[V:1] z4=B,2C2 | 
[V:2] d8 | 
[V:3] G8 | 
[V:4] G,,8 | 
[V:1] D2E2D2G2- | 
[V:2] =B4G4 | 
[V:3] G8 | 
[V:4] z8 | 
[V:1] G2F2E2D2 | 
[V:2] d4c4 | 
[V:3] G4A4- | 
[V:4] z8 | 
[V:1] E4F2D2 | 
[V:2] A8 | 
[V:3] A2G2F4 | 
[V:4] z8 | 
[V:1] E2^C4=B,2 | 
[V:2] G6F2 | 
[V:3] E8 | 
[V:4] z8 | 
[V:1] D8 | 
[V:2] A4=B4 | 
[V:3] D8 | 
[V:4] z8 | 
[V:1] z8 | 
[V:2] A2d3cd2 | 
[V:3] F8 | 
[V:4] D,4F,4 | 
[V:1] z8 | 
[V:2] e2=B2^c2=B^c | 
[V:3] G8 | 
[V:4] E,8 | 
[V:1] z8 | 
[V:2] d4z4 | 
[V:3] A8 | 
[V:4] D,6E,2 | 
[V:1] z8 | 
[V:2] c2A2=B4- | 
[V:3] A4G4- | 
[V:4] F,4G,4 | 
[V:1] z8 | 
[V:2] B2c2=B2A2 | 
[V:3] G4G4 | 
[V:4] E,6C,2 | 
[V:1] z8 | 
[V:2] c4G2A2- | 
[V:3] G6E2 | 
[V:4] C,8 | 
[V:1] z8 | 
[V:2] A2=B2c3=B | 
[V:3] F4E4- | 
[V:4] D,4A,,4 | 
[V:1] z8 | 
[V:2] A2G2G4- | 
[V:3] E2D2D4- | 
[V:4] C,4B,,4 | 
[V:1] z8 | 
[V:2] G2^F2^F2E2 | 
[V:3] D4C4 | 
[V:4] A,,8 | 
[V:1] =B,6C2 | 
[V:2] G4z4 | 
[V:3] D8 | 
[V:4] G,,8- | 
[V:1] D4G4 | 
[V:2] =B8 | 
[V:3] z8 | 
[V:4] G,,8 | 
[V:1] F4A4- | 
[V:2] A8 | 
[V:3] F8 | 
[V:4] D,8 | 
[V:1] A2G2F4 | 
[V:2] d8 | 
[V:3] F8 | 
[V:4] z4D,4 | 
[V:1] E2G4F2 | 
[V:2] =B4c4 | 
[V:3] G8- | 
[V:4] E,4C,4 | 
[V:1] D4E4- | 
[V:2] d2=B4A2 | 
[V:3] G8 | 
[V:4] G,4E,4 | 
[V:1] E2C2C4- | 
[V:2] c2z2C4 | 
[V:3] G8- | 
[V:4] C,8 | 
[V:1] C2=B,2B,2A,2 | 
[V:2] D8 | 
[V:3] G8 | 
[V:4] G,,8 | 
[V:1] C8- | 
[V:2] E6C2 | 
[V:3] G8- | 
[V:4] C,8- | 
[V:1] C8 |]  
[V:2] C8 |]  
[V:3] G8 |]  
[V:4] C,8 |]  



